X:1
T:Outcast Daughter, The
M:C
L:1/8
R:Air
B:Joyce - Old Irish Folk Music and Songs (1909, No. 513)
Z:AK/Fiddler's Companion
K:F
FG|A2A2A2c2|A2 A>G F2 Ac|d2 cA c3A|G6 A2|
F2f2f2d2|c3d A2 GF|G3A F2F2|F6||
cd|f3d c3A|A3G F2 Ac|d2 cA c3A|G6 A2|
F2f2f2d2|c3d A2 GF|G3A F2F2|F4||

